svgs/sharp-light/tickets-perforated.svg

<svg xmlns="http://www.w3.org/2000/svg" viewBox="0 0 640 512"><!--! Font Awesome Pro 6.6.0 by @fontawesome - https://fontawesome.com License - https://fontawesome.com/license (Commercial License) Copyright 2024 Fonticons, Inc. --><path d="M608 64l0 79.5c-23.7 11.8-40 36.2-40 64.5s16.3 52.7 40 64.5l0 79.5-480 0 0-288 480 0zm32 72l0-72 0-32-32 0L128 32 96 32l0 32 0 288 0 32 32 0 480 0 32 0 0-32 0-72 0-32c-22.1 0-40-17.9-40-40s17.9-40 40-40l0-32zm-144-8a16 16 0 1 0 0-32 16 16 0 1 0 0 32zm0 64a16 16 0 1 0 0-32 16 16 0 1 0 0 32zm16 48a16 16 0 1 0 -32 0 16 16 0 1 0 32 0zm-16 80a16 16 0 1 0 0-32 16 16 0 1 0 0 32zM32 112l0-16L0 96l0 16L0 464l0 16 16 0 512 0 16 0 0-32-16 0L32 448l0-336z"/></svg>

<svg xmlns="http://www.w3.org/2000/svg" viewBox="0 0 640 512"><!--! Font Awesome Pro 6.5.2 by @fontawesome - https://fontawesome.com License - https://fontawesome.com/license (Commercial License) Copyright 2024 Fonticons, Inc. --><path d="M608 64v79.5c-23.7 11.8-40 36.2-40 64.5s16.3 52.7 40 64.5V352H128V64H608zm32 72V64 32H608 128 96V64 352v32h32H608h32V352 280 248c-22.1 0-40-17.9-40-40s17.9-40 40-40V136zm-144-8a16 16 0 1 0 0-32 16 16 0 1 0 0 32zm0 64a16 16 0 1 0 0-32 16 16 0 1 0 0 32zm16 48a16 16 0 1 0 -32 0 16 16 0 1 0 32 0zm-16 80a16 16 0 1 0 0-32 16 16 0 1 0 0 32zM32 112V96H0v16V464v16H16 528h16V448H528 32V112z"/></svg>
